X:23
T: Szerelem, szerelem
O: Gajcsána (Tekucs), 1929
Q: 1/8=132
L:1/4
K:F
c/A/c/ | c c/ | A |
c/B/A/ | A G/ | F | 
F/G/A/ | B A/ | (3:2:3 (F/D/C/) |
F/E/D/ | F E/ | D | 

